svgs/sharp-regular/light-emergency.svg

<svg xmlns="http://www.w3.org/2000/svg" viewBox="0 0 448 512"><!--! Font Awesome Pro 6.4.0 by @fontawesome - https://fontawesome.com License - https://fontawesome.com/license (Commercial License) Copyright 2023 Fonticons, Inc. --><path d="M352 304V208c0-70.7-57.3-128-128-128S96 137.3 96 208v96H48V208c0-97.2 78.8-176 176-176s176 78.8 176 176v96H352zM48 384v48H400V384H48zm0-48H400h48v48 48 48H400 48 0V432 384 336H48zM160 208H128c0-53 43-96 96-96v32c-35.3 0-64 28.7-64 64z"/></svg>

<svg xmlns="http://www.w3.org/2000/svg" viewBox="0 0 448 512"><!--! Font Awesome Pro 6.6.0 by @fontawesome - https://fontawesome.com License - https://fontawesome.com/license (Commercial License) Copyright 2024 Fonticons, Inc. --><path d="M352 304l0-96c0-70.7-57.3-128-128-128S96 137.3 96 208l0 96-48 0 0-96c0-97.2 78.8-176 176-176s176 78.8 176 176l0 96-48 0zM48 384l0 48 352 0 0-48L48 384zm0-48l352 0 48 0 0 48 0 48 0 48-48 0L48 480 0 480l0-48 0-48 0-48 48 0zM160 208l-32 0c0-53 43-96 96-96l0 32c-35.3 0-64 28.7-64 64z"/></svg>
